public/assets/img/material-icons/credit_score.svg

<svg height="24" viewBox="0 0 24 24" width="24" xmlns="http://www.w3.org/2000/svg"><path d="m20 4h-16c-1.11 0-1.99.89-1.99 2l-.01 12c0 1.11.89 2 2 2h5v-2h-5v-6h18v-6c0-1.11-.89-2-2-2zm0 4h-16v-2h16zm-5.07 11.17-2.83-2.83-1.41 1.41 4.24 4.25 7.07-7.07-1.41-1.41z"/></svg>

<svg xmlns="http://www.w3.org/2000/svg" width="24" height="24" viewBox="0 0 24 24"><path d="M20 4H4c-1.11 0-1.99.89-1.99 2L2 18c0 1.11.89 2 2 2h5v-2H4v-6h18V6c0-1.11-.89-2-2-2zm0 4H4V6h16v2zm-5.07 11.17-2.83-2.83-1.41 1.41L14.93 22 22 14.93l-1.41-1.41-5.66 5.65z"/></svg>
